images_elementary_svg/cmd/lc_printlayout.svg

<?xml version="1.0" encoding="UTF-8" standalone="no"?>
<svg
   xmlns:dc="http://purl.org/dc/elements/1.1/"
   xmlns:cc="http://creativecommons.org/ns#"
   xmlns:rdf="http://www.w3.org/1999/02/22-rdf-syntax-ns#"
   xmlns:svg="http://www.w3.org/2000/svg"
   xmlns="http://www.w3.org/2000/svg"
   xmlns:xlink="http://www.w3.org/1999/xlink"
   xmlns:sodipodi="http://sodipodi.sourceforge.net/DTD/sodipodi-0.dtd"
   xmlns:inkscape="http://www.inkscape.org/namespaces/inkscape"
   height="24"
   width="24"
   version="1.1"
   id="svg1107"
   sodipodi:docname="lc_printlayout.svg"
   inkscape:version="0.92.3 (unknown)"
   inkscape:export-filename="/home/rizmut/Dokumen/Rizmut/Github/libreoffice-style-elementary/images_elementary/cmd/lc_printlayout.png"
   inkscape:export-xdpi="96"
   inkscape:export-ydpi="96">
  <metadata
     id="metadata1113">
    <rdf:RDF>
      <cc:Work
         rdf:about="">
        <dc:format>image/svg+xml</dc:format>
        <dc:type
           rdf:resource="http://purl.org/dc/dcmitype/StillImage" />
        <dc:title></dc:title>
      </cc:Work>
    </rdf:RDF>
  </metadata>
  <defs
     id="defs1111" />
  <sodipodi:namedview
     pagecolor="#ffffff"
     bordercolor="#666666"
     borderopacity="1"
     objecttolerance="10"
     gridtolerance="10"
     guidetolerance="10"
     inkscape:pageopacity="0"
     inkscape:pageshadow="2"
     inkscape:window-width="1366"
     inkscape:window-height="706"
     id="namedview1109"
     showgrid="true"
     inkscape:zoom="9.8333333"
     inkscape:cx="9.8135593"
     inkscape:cy="12"
     inkscape:window-x="0"
     inkscape:window-y="0"
     inkscape:window-maximized="1"
     inkscape:current-layer="svg1107">
    <inkscape:grid
       type="xygrid"
       id="grid1658" />
  </sodipodi:namedview>
  <linearGradient
     id="a">
    <stop
       offset="0"
       id="stop1067" />
    <stop
       offset="1"
       stop-opacity="0"
       id="stop1069" />
  </linearGradient>
  <linearGradient
     id="b"
     gradientTransform="matrix(.40540511 0 0 .51351351 2.269687 -.32432)"
     gradientUnits="userSpaceOnUse"
     x1="23.99999"
     x2="23.99999"
     y1="6.473675"
     y2="41.526306">
    <stop
       offset="0"
       stop-color="#fff"
       id="stop1072" />
    <stop
       offset="0"
       stop-color="#fff"
       stop-opacity=".235294"
       id="stop1074" />
    <stop
       offset="1"
       stop-color="#fff"
       stop-opacity=".156863"
       id="stop1076" />
    <stop
       offset="1"
       stop-color="#fff"
       stop-opacity=".392157"
       id="stop1078" />
  </linearGradient>
  <linearGradient
     id="c"
     gradientTransform="matrix(.48571543 0 0 .45629666 .342829 .348862)"
     gradientUnits="userSpaceOnUse"
     x1="25.132275"
     x2="25.132275"
     y1=".985206"
     y2="47.013336">
    <stop
       offset="0"
       stop-color="#f4f4f4"
       id="stop1081" />
    <stop
       offset="1"
       stop-color="#dbdbdb"
       id="stop1083" />
  </linearGradient>
  <radialGradient
     id="d"
     cx="605.71429"
     cy="486.64789"
     gradientTransform="matrix(.01204859 0 0 .0082353 13.238793 18.980564)"
     gradientUnits="userSpaceOnUse"
     r="117.14286"
     xlink:href="#a" />
  <radialGradient
     id="e"
     cx="605.71429"
     cy="486.64789"
     gradientTransform="matrix(-.01204859 0 0 .0082353 10.761206 18.980564)"
     gradientUnits="userSpaceOnUse"
     r="117.14286"
     xlink:href="#a" />
  <linearGradient
     id="f"
     gradientTransform="matrix(.0352071 0 0 .0082353 -.724852 18.980547)"
     gradientUnits="userSpaceOnUse"
     x1="302.85715"
     x2="302.85715"
     y1="366.64789"
     y2="609.50507">
    <stop
       offset="0"
       stop-opacity="0"
       id="stop1088" />
    <stop
       offset=".5"
       id="stop1090" />
    <stop
       offset="1"
       stop-opacity="0"
       id="stop1092" />
  </linearGradient>
  <path
     d="m3.500001 22h16.999998v2h-16.999998z"
     fill="url(#f)"
     opacity=".15"
     id="path1095" />
  <path
     d="m3.4999999 22.000085v1.999891c-.6204724.0038-1.4999999-.448075-1.4999999-1.000075 0-.551999.6924-.999816 1.4999999-.999816z"
     fill="url(#e)"
     opacity=".15"
     id="path1097" />
  <path
     d="m20.5 22.000085v1.999891c.620472.0038 1.5-.448075 1.5-1.000075 0-.551999-.692402-.999816-1.5-.999816z"
     fill="url(#d)"
     opacity=".15"
     id="path1099" />
  <path
     d="m3.4999601 1.4999569c3.8955809 0 17.0000589.00136 17.0000589.00136l.000021 20.9987161s-11.3333862 0-17.0000799 0c0-7.000018 0-14.000035 0-21.0000538z"
     fill="url(#c)"
     id="path1101" />
  <path
     d="m19.5 21.5h-15.0000004v-19h15.0000004z"
     fill="none"
     stroke="url(#b)"
     stroke-linecap="round"
     id="path1103" />
  <path
     d="m3.4999601 1.4999569c3.8955809 0 17.0000589.00136 17.0000589.00136l.000021 20.9987161s-11.3333862 0-17.0000799 0c0-7.000018 0-14.000035 0-21.0000538z"
     fill="none"
     opacity=".3"
     stroke="#000"
     stroke-linejoin="round"
     stroke-width=".999922"
     id="path1105" />
  <g
     transform="translate(7.999999,7.9999933)"
     id="g1669">
    <path
       sodipodi:nodetypes="cccccc"
       style="fill:#505050;stroke:#565656;stroke-width:0.99970901;stroke-linecap:square"
       inkscape:connector-curvature="0"
       id="path6"
       d="m 2.8683853,14.499107 c 0.0073,0.359613 0.029665,0.914771 0.3421077,0.991264 3.3005711,0.01952 6.2780675,0.0028 9.579015,0.0084 0.340644,0.01588 0.35312,-0.621029 0.342108,-0.999661 H 2.8683853 Z" />
    <g
       style="stroke-linecap:round"
       id="g14">
      <path
         sodipodi:nodetypes="ccccc"
         inkscape:connector-curvature="0"
         id="path1491"
         d="M 0.64718248,6.5559297 1.3946059,3.5049857 14.611425,3.5086207 15.325501,6.572335 Z"
         style="fill:#4f4f4f;fill-opacity:1;fill-rule:evenodd;stroke:none;stroke-width:1px;stroke-linecap:butt;stroke-linejoin:miter;stroke-opacity:1" />
      <path
         sodipodi:nodetypes="sssccss"
         style="fill:#4f4f4f;fill-opacity:1;stroke:none;stroke-width:0.99993199;stroke-linejoin:round"
         inkscape:connector-curvature="0"
         id="path8"
         d="M 1.2251892,6.5169154 H 14.774809 c 0.401775,0 0.725226,0.3477098 0.725226,0.7796206 v 6.203498 H 0.49996514 V 7.296536 c 0,-0.4319108 0.32345002,-0.7796206 0.72522406,-0.7796206 z" />
      <path
         d="M 1.2251892,6.5169154 H 14.774809 c 0.401775,0 0.725226,0.3477098 0.725226,0.7796206 v 6.203498 H 0.49996514 V 7.296536 c 0,-0.4319108 0.32345002,-0.7796206 0.72522406,-0.7796206 z"
         id="path1474"
         inkscape:connector-curvature="0"
         style="opacity:0.70999995;fill:none;fill-opacity:1;stroke:#393939;stroke-width:0.99993199;stroke-linejoin:round;stroke-opacity:1"
         sodipodi:nodetypes="sssccss" />
      <rect
         style="color:#000000;display:inline;overflow:visible;visibility:visible;fill:#0cceff;fill-opacity:1;fill-rule:nonzero;stroke:none;stroke-width:1;marker:none;enable-background:accumulate"
         id="rect3991"
         y="8"
         x="12"
         height="2"
         width="2" />
      <path
         style="opacity:0.7;fill:none;fill-opacity:1;fill-rule:evenodd;stroke:#393939;stroke-width:1px;stroke-linecap:butt;stroke-linejoin:miter;stroke-opacity:1"
         d="M 0.64718248,6.5559297 1.3946059,3.5049857 14.611425,3.5086207 15.325501,6.572335 Z"
         id="path1493"
         inkscape:connector-curvature="0"
         sodipodi:nodetypes="ccccc" />
    </g>
    <path
       sodipodi:nodetypes="csssscc"
       style="fill:#e9e9e9;stroke-width:1.98724747"
       inkscape:connector-curvature="0"
       id="path16"
       d="M 13.000007,11 13,14.506356 C 12.999999,14.779835 12.93031,15 12.843749,15 H 3.156243 C 3.069681,15 2.999993,14.779835 2.999993,14.506356 L 3,11 Z" />
    <path
       sodipodi:nodetypes="ccccc"
       style="fill:#e9e9e9;stroke:#8c8c8c;stroke-width:0.99525303;stroke-linejoin:round"
       inkscape:connector-curvature="0"
       id="path4"
       d="m 3.4834428,0.49813255 9.0262342,0.001739 V 5.3559322 H 3.4834428 Z" />
  </g>
</svg>

<?xml version="1.0" encoding="UTF-8" standalone="no"?>
<svg xmlns:rdf="http://www.w3.org/1999/02/22-rdf-syntax-ns#" xmlns="http://www.w3.org/2000/svg" height="24" width="24" version="1.1" xmlns:cc="http://creativecommons.org/ns#" xmlns:xlink="http://www.w3.org/1999/xlink" xmlns:dc="http://purl.org/dc/elements/1.1/">
 <metadata>
  <rdf:RDF>
   <cc:Work rdf:about="">
    <dc:format>image/svg+xml</dc:format>
    <dc:type rdf:resource="http://purl.org/dc/dcmitype/StillImage"/>
    <dc:title/>
   </cc:Work>
  </rdf:RDF>
 </metadata>
 <linearGradient id="a">
  <stop offset="0"/>
  <stop stop-opacity="0" offset="1"/>
 </linearGradient>
 <linearGradient id="b" y2="41.526" gradientUnits="userSpaceOnUse" y1="6.4737" gradientTransform="matrix(.40541 0 0 .51351 2.2697 -.32432)" x2="24" x1="24">
  <stop stop-color="#fff" offset="0"/>
  <stop stop-color="#fff" stop-opacity=".23529" offset="0"/>
  <stop stop-color="#fff" stop-opacity=".15686" offset="1"/>
  <stop stop-color="#fff" stop-opacity=".39216" offset="1"/>
 </linearGradient>
 <linearGradient id="c" y2="47.013" gradientUnits="userSpaceOnUse" y1=".98521" gradientTransform="matrix(.48572 0 0 .45630 .34283 .34886)" x2="25.132" x1="25.132">
  <stop stop-color="#f4f4f4" offset="0"/>
  <stop stop-color="#dbdbdb" offset="1"/>
 </linearGradient>
 <radialGradient id="d" xlink:href="#a" gradientUnits="userSpaceOnUse" cy="486.65" cx="605.71" gradientTransform="matrix(.012049 0 0 .0082353 13.239 18.981)" r="117.14"/>
 <radialGradient id="e" xlink:href="#a" gradientUnits="userSpaceOnUse" cy="486.65" cx="605.71" gradientTransform="matrix(-.012049 0 0 .0082353 10.761 18.981)" r="117.14"/>
 <linearGradient id="f" y2="609.51" gradientUnits="userSpaceOnUse" y1="366.65" gradientTransform="matrix(.035207 0 0 .0082353 -.72485 18.981)" x2="302.86" x1="302.86">
  <stop stop-opacity="0" offset="0"/>
  <stop offset=".5"/>
  <stop stop-opacity="0" offset="1"/>
 </linearGradient>
 <path opacity=".15" d="m3.5 22h17v2h-17z" fill="url(#f)"/>
 <path opacity=".15" d="m3.5 22v1.9999c-0.62047 0.0038-1.5-0.44808-1.5-1.0001 0-0.552 0.6924-0.99982 1.5-0.99982z" fill="url(#e)"/>
 <path opacity=".15" d="m20.5 22v1.9999c0.62047 0.0038 1.5-0.44808 1.5-1.0001 0-0.552-0.6924-0.99982-1.5-0.99982z" fill="url(#d)"/>
 <path d="m3.5 1.5c3.8956 0 17 0.00136 17 0.00136l0.000021 20.999s-11.333 0-17 0v-21z" fill="url(#c)"/>
 <path stroke="url(#b)" stroke-linecap="round" d="m19.5 21.5h-15v-19h15z" fill="none"/>
 <path opacity=".3" stroke-linejoin="round" d="m3.5 1.5c3.8956 0 17 0.00136 17 0.00136l0.000021 20.999s-11.333 0-17 0v-21z" stroke="#000" stroke-width=".99992" fill="none"/>
 <g transform="translate(8 8)">
  <path d="m2.8684 14.499c0.0073 0.35961 0.029665 0.91477 0.34211 0.99126 3.3006 0.01952 6.2781 0.0028 9.579 0.0084 0.34064 0.01588 0.35312-0.62103 0.34211-0.99966h-10.263z" stroke="#565656" stroke-linecap="square" stroke-width=".99971" fill="#505050"/>
  <g stroke-linecap="round">
   <path d="m0.64718 6.5559 0.74742-3.0509 13.216 0.0036 0.715 3.0637z" fill-rule="evenodd" fill="#4f4f4f"/>
   <path d="m1.2252 6.5169h13.55c0.40178 0 0.72523 0.34771 0.72523 0.77962v6.2035h-15v-6.2035c0-0.43191 0.32345-0.77962 0.72522-0.77962z" fill="#4f4f4f"/>
   <path opacity="0.71" stroke-linejoin="round" d="m1.2252 6.5169h13.55c0.40178 0 0.72523 0.34771 0.72523 0.77962v6.2035h-15v-6.2035c0-0.43191 0.32345-0.77962 0.72522-0.77962z" stroke="#393939" stroke-width=".99993" fill="none"/>
   <rect style="color:#000000" height="2" width="2" y="8" x="12" fill="#0cceff"/>
   <path opacity=".7" d="m0.64718 6.5559 0.74742-3.0509 13.216 0.0036 0.715 3.0637z" stroke="#393939" stroke-linecap="butt" stroke-width="1px" fill="none"/>
  </g>
  <path d="m13 11v3.506c0 0.274-0.07 0.494-0.156 0.494h-9.6878c-0.0865 0-0.1562-0.22-0.1562-0.494v-3.506z" stroke-width="1.9872" fill="#e9e9e9"/>
  <path stroke-linejoin="round" d="m3.4834 0.49813 9.0262 0.001739v4.856h-9.0266z" stroke="#8c8c8c" stroke-width=".99525" fill="#e9e9e9"/>
 </g>
</svg>
